X: 1211
T: Karabatak
C: Hızır Ağa
O: Turkey
F: http://compmusic.upf.edu/node/140
N: segah--pesrev--sakil--karabatak--hizir_aga
N: makam= segah
N: form= pesrev
N: usul= sakil = 32/4
M: 32/4
L: 1/16
K: C _1/4B _1/4e ^f 
Q: 1/4=72
%%MIDI tuningsystem comma53
g3 f f2 {g}f e d4 e f g a  | g6 f2 f2 {g}f e d3 e  | \
w:  1. HANE  |   | 
d c B2 B e d c B2 A2 B2 c2  | 
w:   | 
d3 e d c B2 A B2 c B A G2  | z2 B c B2 c2 d4 e4  | \
w:   |   | 
d e d ^c d e f g ^e2 f4 a2  | 
w:   | 
a2 {b}a g g2 {a}g f f2 {g}f e d3 a  | \
w:   | 
a2 {b}a g g2 {a}g f f2 {g}f e d4  | 
w:   | 
d3/2 c/ B c B2 c2 d4 e3/2 f/ g a  | \
w:   | 
f g2 f e g f e d3 e d c B2  | 
w:   | 
z2 B c d e f g f g e =f d e c d  | \
w:   | 
B2 c B c2 ^A2 B6 z2  | 
w:   | 
f3 ^e f e f g f4 g4  | ^a b c' b a2 g2 f6 z2  | \
w:  2. HANE  |   | 
^a2 b4 a2 g2 f2 g2 a2  | 
w:   | 
z2 f g ^a b c' b b6 z2  | d'3 c' d'2 b2 d' c' b a b3 e'  | \
w:   |   | 
d'3 c' d'2 b2 d' c' b ^a b3 c'  | 
w:   | 
b3 g ^a2 f2 =a g f ^e f3 b  | a3 g a2 f2 a g f ^e f4  | \
w:   |   | 
g3/2 f/ e f e2 f2 g3 f a4  | 
w:   | 
g2 {a}g f f2 {g}f e d3 e d c B2  | \
w:   | 
z2 B c d e f g f g e =f d e c d  | 
w:   | 
B2 c B c2 ^A2 B6 z2  | f3 ^e f2 g a f2 g a f4  | \
w:   |  3. HANE  | 
B3 ^A B2 c d B2 c d B4  | 
w:   | 
f3 ^e f2 g a f2 g a f4  | B3 A B2 c d B2 c d B4  | \
w:   |   | 
a g2 f e f d2 e f g a g4  | 
w:   | 
B3 A G2 F2 G A G A B4  | a g2 f e f d2 e f g a g4  | \
w:   |   | 
B3 ^A G2 F2 G A G A B4  | 
w:   | 
g f e f e2 f2 g3 f a4  | f2 g f e2 f e d3 e d c B2  | \
w:   |   | 
z2 B c d e f g f g e =f d e c d  | 
w:   | 
B2 c B c2 ^A2 B6 z2  | B3 ^A B2 c2 d f e d d c B2  | \
w:   |  4. HANE  | 
z2 B B B2 f2 e g f e d ^c B2  | 
w:   | 
z2 B B B2 a2 a _b a g g2 g f  | f2 f e d3 c B2 c2 d4  | \
w:   |   | 
d _7/8e2 d d c B2 z2 f f f2 e2  | 
w:   | 
d2 _7/8e2 f3 a g2 f2 e d c2  | z2 B ^A B2 c2 d3 c d c B2  | \
w:   |   | 
d _7/8e2 d ^c d e f d3 a a2 a g  | 
w:   | 
f3 a g2 g f _7/8e3 g f2 f e  | d3 g =f2 e2 d3 e d c B2  | \
w:   |   | 
z2 B c d e f g f g e =f d e c d  | 
w:   | 
B2 c B c2 ^A2 B6 z2  | |


